Images/Icons/GitHub.svg

<svg width="100" height="100" viewBox="0 0 100 100" fill="none" xmlns="http://www.w3.org/2000/svg">
<path d="M42.8859 76.8917C45.6651 77.614 48.5799 77.9994 51.5861 77.9994C54.8137 77.9994 60.0732 76.9761 60.0732 76.9761L60.0289 74.484C60.0289 74.484 60.0712 69.6188 60.0712 64.9944C60.0712 61.7675 58.9649 59.6559 57.7223 58.5884C65.429 57.7318 73.5169 54.8073 73.5169 41.5179C73.5169 37.7417 72.1781 34.6532 69.9607 32.2351C70.3163 31.3599 71.5036 27.8425 69.6162 23.0804C69.6162 23.0804 66.7172 22.1505 60.1127 26.6269C57.3493 25.8596 54.3895 25.4756 51.4526 25.4625C48.5107 25.4756 45.5509 25.8596 42.7918 26.6269C36.183 22.1505 33.2786 23.0804 33.2786 23.0804C31.3967 27.8432 32.584 31.3606 32.9396 32.2351C30.727 34.6532 29.3792 37.741 29.3792 41.5179C29.3792 54.7741 37.4547 57.7422 45.1365 58.6154C44.1485 59.4802 43.2546 61.0044 42.9405 63.2398C40.9694 64.1254 35.9589 65.6516 32.8732 60.3658C32.8732 60.3658 31.0459 57.0455 27.5748 56.8006C27.5748 56.8006 24.1964 56.757 27.3368 58.9032C27.3368 58.9032 29.6048 59.9673 31.1774 63.9635C31.1774 63.9635 33.208 70.6912 42.8305 68.6011C42.8471 71.4882 42.8776 73.6635 42.8776 74.4847" fill="black"/>
</svg>

<?xml version="1.0" encoding="utf-8"?>
<!-- Generator: Adobe Illustrator 27.1.1, SVG Export Plug-In . SVG Version: 6.00 Build 0)  -->
<svg version="1.1" id="Capa_1" xmlns="http://www.w3.org/2000/svg" xmlns:xlink="http://www.w3.org/1999/xlink" x="0px" y="0px"
	 viewBox="0 0 100 100" style="enable-background:new 0 0 100 100;" xml:space="preserve">
<style type="text/css">
	.st0{fill:#121212;}
</style>
<path class="st0" d="M42.9,76.9c2.8,0.7,5.7,1.1,8.7,1.1c3.2,0,8.5-1,8.5-1l0-2.5c0,0,0-4.9,0-9.5c0-3.2-1.1-5.3-2.3-6.4
	c7.7-0.9,15.8-3.8,15.8-17.1c0-3.8-1.3-6.9-3.6-9.3c0.4-0.9,1.5-4.4-0.3-9.2c0,0-2.9-0.9-9.5,3.5c-2.8-0.8-5.7-1.2-8.7-1.2
	c-2.9,0-5.9,0.4-8.7,1.2c-6.6-4.5-9.5-3.5-9.5-3.5c-1.9,4.8-0.7,8.3-0.3,9.2c-2.2,2.4-3.6,5.5-3.6,9.3c0,13.3,8.1,16.2,15.8,17.1
	c-1,0.9-1.9,2.4-2.2,4.6c-2,0.9-7,2.4-10.1-2.9c0,0-1.8-3.3-5.3-3.6c0,0-3.4,0-0.2,2.1c0,0,2.3,1.1,3.8,5.1c0,0,2,6.7,11.7,4.6
	c0,2.9,0,5.1,0,5.9"/>
</svg>
